!!!COM: Mozart, Wolfgang Amadeus
!!!OTL: String Quartet No. 16 in E-flat Major
!!!OMD: Andante con moto
!!!OMV: 2
!!!SCT1: K<sup>1</sup> 428
!!!SCA: Chronologisch-thematisches Verzeichnis sämtlicher Tonwerke Wolfgang Amade Mozarts (L. von Köchel; 1862, 2/1905, 3/1937, 1947)
!!!SCT2: K<sup>6</sup> 421b
!!!YOR: Breitkopf & Härtel Edition
!!!ENC: Frances Bennion
!!!CDT: 1756/1/27/-1791/12/5/
!!!OCY: Österreich
!!!YEC: Copyright (c) 1994, 2000 Center for Computer Assisted Research in the Humanities
!!!YEM: Rights to all derivative editions reserved.
!!!YEM: Refer to licensing agreement for further details.
!!!YEN: United States of America
**kern	**kern	**kern	**kern
*k[b-e-a-d-]	*k[b-e-a-d-]	*k[b-e-a-d-]	*k[b-e-a-d-]
*A-:	*A-:	*A-:	*A-:
*clefC	*clefF	*clefG	*clefG
*M6/8	*M6/8	*M6/8	*M6/8
8AA-	4.A-	4.c	[4.e-
8C	.	.	.
8E-	.	.	.
8GG	4.B-	4.d-	4.e-]
8BB-	.	.	.
8E-	.	.	.
=2	=2	=2	=2
8AA-	4A-	8c	8e-
8C	.	8e-	4.a-
8F	8c	4f	.
8D-	4.B-	.	.
8E-	.	[4e-	[4g
8BB-	.	.	.
=3	=3	=3	=3
8BB	4.A-	8e-]	8g]
8C	.	4.d-	4.f
8D-	.	.	.
8BB-	4.G	.	.
8C	.	[4c	[4e-
8GG	.	.	.
=4	=4	=4	=4
8AA-	4.F	8c]	8e-]
8AA	.	4.B-	4.d-
8BB-	.	.	.
8GG	8F-	.	.
8AA-	4E-	[4A-	4c
8GG-	.	.	.
=5	=5	=5	=5
8FF	8F	8A-]	8d-
8EE-	8G	8B-	8e-
8DD	8A-	8c-	8f
8EE-	8A-	8c	4e-
8E-	8G	8B-	.
8r	8r	8r	16.d-
.	.	.	32B-
=6	=6	=6	=6
8A-	4.a-	4.r	4A-
8c	.	.	.
8e-	.	.	2r
8G	[4.ee-	4.ee-	.
8B-	.	.	.
8e-	.	.	.
=7	=7	=7	=7
8F	8ee-]	2aa-	4.aa-
8A-	4dd-	.	.
8d-	.	.	.
8E-	8cc	.	[4.eee-
8B-	4b-	4gg	.
8e-	.	.	.
=8	=8	=8	=8
8f	8a	8cc	8eee-]
8B-	8b-	8dd-	4.ddd-
8d-	8a-	8cc-	.
8e-	8g	8b-	.
8A-	8a-	8cc-	[4ccc-
8c-	8g-	8b-	.
=9	=9	=9	=9
4.D	4.f	8a-	8ccc-]
.	.	8b-	8bb-
.	.	8cc-	8aa-
8E-	16.g	16.b-	4gg
.	32a-	32cc	.
8E	8b-	8dd-	.
8F	8a-	8cc	8aa-
=10	=10	=10	=10
4G	8r	4b-	8ee-
.	8e-	.	8dd-
8A-	8e-	8a-	8cc
4E-	4e-	8a-	8cc
.	.	8g	8b-
8r	8r	8r	8gg
=11	=11	=11	=11
8r	8r	8r	[3..b-
8G	8B-	8e-	.
8E-	8e-	8g	.
4B-	8e	8g	.
.	8f	8a-	.
.	.	.	24b-]
8r	8r	8r	8aa-
=12	=12	=12	=12
8r	8r	8r	[3..b-
8D	8F	8B-	.
8BB-	8d	8f	.
4E-	8d	8f#	.
.	8e-	8g	.
.	.	.	24b-]
8r	8r	8r	8bb-
=13	=13	=13	=13
8r	8r	8r	2dd-
8F	8f	8a-	.
8G	8e-	4b-	.
4A-	4e-	.	.
.	.	8a-	8cc
8G	8c	8e	8b-
=14	=14	=14	=14
8F	4.c	8f	8a-
8FF	.	8cc	16bb-
.	.	.	16aa-
8AA-	.	16b-	16gg
.	.	16a-	16ff
4BB-	4B-	8g	8ee-
.	.	8f	8dd
8r	8b-	8r	8r
=15	=15	=15	=15
8r	[2cc-	8r	4r
8F	.	8d	.
8E-	.	8e-	8gg
4.D	.	8e	[4.aa-
.	8cc-]	8f	.
.	8b-	8r	.
=16	=16	=16	=16
8r	[2cc-	8r	4aa-]
8F	.	8d	.
8E-	.	8e-	8gg
4.D	.	8e	[4.aa-
.	8cc-]	8f	.
.	8b-	8r	.
=17	=17	=17	=17
8r	4.cc-	8r	4aa-]
8F	.	8d	.
8E-	.	8e-	8aa
4D	4.b-	8e	8bb-
.	.	8f	8aa-
8E-	.	8g	8gg
=18	=18	=18	=18
8A-	8a-	8cc	16gg
.	.	.	16ff
8B-	8g	8b-	8ee-
8BB-	8f	8a-	8dd
8E-	4e-	4g	4ee-
8EE-	.	.	.
8r	8r	8r	8cc
=19	=19	=19	=19
4r	8r	8r	[3..dd-
.	8B-	8g	.
8F-	8A-	8a-	.
[4.E-	4.G	8a	.
.	.	8b-	.
.	.	.	24dd-]
.	.	8r	8cc
=20	=20	=20	=20
4E-]	8r	8r	[3..dd-
.	8B-	8g	.
8F-	8A-	8a-	.
[4.E-	4.G	8a	.
.	.	8b-	.
.	.	.	24dd-]
.	.	8r	8cc
=21	=21	=21	=21
4E-]	[2.e-	8r	[3..dd-
.	.	8g	.
8F	.	8a-	.
8F#	.	8a	.
8G	.	8b-	.
.	.	.	24dd-]
8A-	.	8a-	8cc
=22	=22	=22	=22
8B-	8e-]	8f#	8a
4r	4r	8g	8b-
.	.	8e-	8g
8BB-	8B-	8g	8b-
4r	4r	16.f	16.a-
.	.	32e-	32g
.	.	8d	8f
=23	=23	=23	=23
8AA	4.c	4.e-	2.f
8C	.	.	.
8F	.	.	.
8AA-	[4.B-	4.d	.
8D	.	.	.
8F	.	.	.
=24	=24	=24	=24
8GG	8B-]	8e-	8b-
8BB	8d	8f	8a-
8C	8..e-	8e-	8g
8AA-	.	16.a-	16.cc
.	32c	32f	32a-
8BB-	4B-	8e-	8g
8B-	.	8d	8f
=25	=25	=25	=25
4.A	4.cc	4.ee- [4.f	8ff
.	.	.	8aa
.	.	.	8ccc
4.A-	4.b-	4.dd 4.f]	8ff
.	.	.	8bb-
.	.	.	8ddd
=26	=26	=26	=26
8G	8b-	8ee- 8e-	8eee-
2r	2r	8g	8gg
.	.	8a-	8aa-
.	.	8a	8aa
.	.	8b-	8bb-
8r	8r	8b	8bb
=27	=27	=27	=27
4A-	4c	8cc	8ccc
.	.	8e	8ee
2r	2r	8f	8ff
.	.	8..a-	8..aa-
.	.	32f	32ff
.	.	16.a-	16.aa-
.	.	32f	32ff
=28	=28	=28	=28
4r	4r	8e-	16.ee-
.	.	.	32gg
.	.	8r	8.bb-
8B-	8e-	8g	.
.	.	.	16gg
8r	8r	8r	8.eee-
8B-	8e-	8g	.
.	.	.	16bb-
8r	8r	8r	8ggg
=29	=29	=29	=29
8B-	8e-	8g	16r
.	.	.	16g
2r	2r	2r	16a-
.	.	.	16a
.	.	.	16b-
.	.	.	16b
.	.	.	16.cc
.	.	.	32dd
.	.	.	16ee-
.	.	.	16ee-
8r	8r	8r	16ee-
.	.	.	16ee-
=30	=30	=30	=30
8BB-	4.G	4.B-	4ee-
8BB-	.	.	.
8BB-	.	.	16.e-
.	.	.	32f
8BB-	4.B-	4.d 4.A-	4.f
8BB-	.	.	.
8BB-	.	.	.
=31	=31	=31	=31
8E-	2.g 2.B-	4.ee-	4e-
8G	.	.	.
8B-	.	.	2r
8E-	.	4.dd-	.
8G	.	.	.
8B-	.	.	.
=32	=32	=32	=32
8E-	4.a- 4.c	4.cc	16cc
.	.	.	16ccc
8A-	.	.	16bb-
.	.	.	16aa-
8c	.	.	16gg
.	.	.	16ff
8E-	4.f 4.B-	4.dd	16b-
.	.	.	16aa-
8F	.	.	16gg
.	.	.	16ff
8A-	.	.	16ee-
.	.	.	16dd
=33	=33	=33	=33
8E-	2.g 2.B-	4.ee-	16.bb-
.	.	.	32gg
8G	.	.	8ee-
8B-	.	.	2r
8E-	.	4.dd-	.
8G	.	.	.
8B-	.	.	.
=34	=34	=34	=34
8E-	4.a- 4.c	4.cc	16cc
.	.	.	16ccc
8A-	.	.	16bb-
.	.	.	16aa-
8c	.	.	16gg
.	.	.	16ff
8E-	4.f 4.B-	4.dd	16b-
.	.	.	16aa-
8F	.	.	16gg
.	.	.	16ff
8A-	.	.	16ee-
.	.	.	16dd
=35	=35	=35	=35
8E-	8g 8B-	8ee-	8ee-
8EE-	8B- 8E-	8e- 8G	8e- 8G
8EE-	8B- 8E-	8e- 8G	8e- 8G
8EE-	8B- 8E-	8e- 8G	8e- 8G
4r	4r	4r	4r
=36	=36	=36	=36
4.E-	8e-	4.r	2.r
.	8g	.	.
.	8b-	.	.
[4.B-	8d	4.b-	.
.	8f	.	.
.	8b-	.	.
=37	=37	=37	=37
8B-]	8c	2ee-	4.ee-
4A-	8e-	.	.
.	8a-	.	.
8G	8B-	.	[4.bb-
4F	8d-	4dd-	.
.	8f	.	.
=38	=38	=38	=38
8E	8c	8cc	8bb-]
8F	8f	4.ff	4.aa-
8BB	8a-	.	.
4C	8c	.	.
.	8e	4ee	4gg
8r	8g	.	.
=39	=39	=39	=39
2.r	4.F	8f	2.r
.	.	8a-	.
.	.	8cc	.
.	[4.c	8e-	.
.	.	8g	.
.	.	8cc	.
=40	=40	=40	=40
2.r	8c]	8d-	4.dd-
.	4.B-	8g	.
.	.	8b-	.
.	.	8c	[4.aa-
.	4A-	8e-	.
.	.	8a-	.
=41	=41	=41	=41
4.EE-	2.r	8B-	8aa-]
.	.	8e-	8gg
.	.	8b-	4gg-
4.BB-	.	8B-	.
.	.	8d	8ff
.	.	8f	[8bb-
=42	=42	=42	=42
2.r	4.F	8c	8bb-]
.	.	8f	8aa
.	.	8cc	4aa-
.	4.c	8c	.
.	.	8e	8gg
.	.	8g	[8ccc
=43	=43	=43	=43
4.BB-	4.d-	8f	8ccc]
.	.	8b-	8aa
.	.	8dd-	4bb-
4.F	4.c	8f	.
.	.	8a-	8gg
.	.	8cc	[8aa-
=44	=44	=44	=44
4.GG-	4B-	8d-	8aa-]
.	.	8g-	8ff
.	8c	8b-	4gg-
4.D-	4d-	8a-	.
.	.	8b-	8ee
.	8a-	8b	8ff
=45	=45	=45	=45
4.C	8a-	2cc	8ff
.	8b-	.	8gg
.	8g	.	8ee
8F	8a-	.	8ff
8A-	4r	4r	4r
8c	.	.	.
=46	=46	=46	=46
2.f	8f	4.r	2.r
.	8a-	.	.
.	8cc-	.	.
.	8e-	[4.a-	.
.	8a-	.	.
.	8cc-	.	.
=47	=47	=47	=47
2.B-	8d	4.a-]	8bb-
.	8f	.	8ff
.	8b-	.	8dd
.	4.r	4.f	8aa-
.	.	.	8ff
.	.	.	8dd
=48	=48	=48	=48
2.e-	8e-	[2.g-	8gg-
.	8g-	.	8ee-
.	8b-	.	8b-
.	8d-	.	4.r
.	8f-	.	.
.	8b--	.	.
=49	=49	=49	=49
2.A-	8c	4.g-]	8aa-
.	8e-	.	8ee-
.	8a-	.	8cc
.	4.r	4.e-	8gg-
.	.	.	8ee-
.	.	.	8cc
=50	=50	=50	=50
4.D-	4.a-	4.d-	8ff-
.	.	.	8dd-
.	.	.	8a-
4.E-	4.g	[4.B-	8g
.	.	.	8b-
.	.	.	8ee-
=51	=51	=51	=51
4.F	4.a-	4.B-]	8dd
.	.	.	8a-
.	.	.	8f
4.G	[4.e-	4.b-	8e-
.	.	.	8b-
.	.	.	8dd-
=52	=52	=52	=52
4.A-	4.e-]	2.a-	8cc
.	.	.	8a-
.	.	.	8e-
4.D	4.f	.	8f
.	.	.	8a-
.	.	.	8cc-
=53	=53	=53	=53
4E-	8B-	8g	8b-
.	8G	4r	4r
2r	8E-	.	.
.	8D	8a-	8cc
.	8F	4r	4r
.	8A-	.	.
=54	=54	=54	=54
8EE-	8G	8e-	8b-
8GG	2r	2r	3..r
8BB-	.	.	.
8AA-	.	.	.
8FF	.	.	.
8DD	8r	8r	.
.	.	.	24r
=55	=55	=55	=55
4.EE-	2E-	8gg	8bb-
.	.	8ee-	8gg
.	.	4b-	8ee-
8GG	.	.	8dd-
8BB-	8G	8e-	8b-
8E-	8B-	8d-	8g
=56	=56	=56	=56
8AA-	4.A-	4.c	[4.e-
8C	.	.	.
8E-	.	.	.
8GG	4.B-	4.d-	4.e-_
8BB-	.	.	.
8E-	.	.	.
=57	=57	=57	=57
8AA-	4A-	8c	8e-]
8C	.	8e-	4.a-
8F	8c	4f	.
8D-	4.B-	.	.
8E-	.	[4e-	[4g
8BB-	.	.	.
=58	=58	=58	=58
8BB	4.A-	8e-]	8g]
8C	.	4.d-	4.f
8D-	.	.	.
8BB-	4.G	.	.
8C	.	[4c	[4e-
8GG	.	.	.
=59	=59	=59	=59
8AA-	4.F	8c]	8e-]
8AA	.	4.B-	4.d-
8BB-	.	.	.
8GG	8F-	.	.
8AA-	4E-	[4A-	4c
8GG-	.	.	.
=60	=60	=60	=60
8FF	8F	8A-]	8d-
8EE-	8G	8B-	8e-
8DD	8A-	8c-	8f
8EE-	8A-	8c	4e-
8E-	8G	8B-	.
8r	8r	8r	16.d-
.	.	.	32B-
=61	=61	=61	=61
8A-	4.a-	4.r	4A-
8c	.	.	.
8e-	.	.	2r
8G	[4.ee-	4.ee-	.
8B-	.	.	.
8e-	.	.	.
=62	=62	=62	=62
8F	8ee-]	2aa-	4.aa-
8A-	4dd-	.	.
8d-	.	.	.
8E-	8cc	.	[4.eee-
8B-	4b-	4gg	.
8e-	.	.	.
=63	=63	=63	=63
8f	8a	8cc	8eee-]
8B-	8b-	8dd-	4.ddd-
8d-	8a-	8cc-	.
8e-	8g	8b-	.
8A-	8a-	8cc-	[4ccc-
8c-	8g-	8b-	.
=64	=64	=64	=64
4.D	4.f	8a-	8ccc-]
.	.	8b-	8bb-
.	.	8cc-	8aa-
8E-	16.g	16.b-	4gg
.	32a-	32cc	.
8E	8b-	8dd-	.
8F	8a-	8cc	8aa-
=65	=65	=65	=65
4G	8r	4b-	8ee-
.	8e-	.	8dd-
8A-	8e-	8a-	8cc
4E-	4e-	8a-	8cc
.	.	8g	8b-
8r	8r	8r	8ee-
=66	=66	=66	=66
8r	8r	8r	[3..e-
8C	8E-	8A-	.
8AA-	8A-	8c	.
4E-	8A	8c	.
.	8B-	8d-	.
.	.	.	24e-]
8r	8r	8r	8ee-
=67	=67	=67	=67
8r	8r	8r	[3..e-
8GG	8E-	8B-	.
8EE-	8B-	8d-	.
4AA-	8G	8B	.
.	8A-	8c	.
.	.	.	24e-]
8r	8r	8r	8ee-
=68	=68	=68	=68
8r	8r	8r	2e
8C	8A-	8A-	.
8C	8G-	8A-	.
8C	8G-	4A-	.
8D-	8F	.	8f
8r	8r	8r	8ff
=69	=69	=69	=69
8r	8r	8r	2f#
8D	8B-	8B-	.
8D	8A-	8B-	.
8D	8A-	4B-	.
8E-	8G	.	8g
8E	[8c	8b-	8gg
=70	=70	=70	=70
4F	4c]	8g	8b-
.	.	8f	8a-
8G	4.e-	8dd-	8bb-
4A-	.	8b-	8dd-
.	.	8a-	8cc
8C	[8A-	8a-	[8ee
=71	=71	=71	=71
4.D-	8A-]	4a-	8ee]
.	8d-	.	16gg
.	.	.	16ff
.	8f	8b-	16ee-
.	.	.	16dd-
8E-	4e-	8a-	8cc
4r	.	8g	8b-
.	8e-	8g	8b-
=72	=72	=72	=72
4.B-	8.d	8.f	4b-
.	16e-	16g	.
.	8f	8a-	8b-
8e-	8f	8a-	4b-
4r	8e-	8g	.
.	8e-	8b- 8g	8ee-
=73	=73	=73	=73
4.BB-	4.f	4.b- 4.a-	16dd
.	.	.	16ff
.	.	.	16aa-
.	.	.	16ff
.	.	.	16ee-
.	.	.	16dd
4EE-	8f	[8b- 8a-	8dd
.	8e-	8b-] 8g	8ee-
8r	8r	8e-	8r
=74	=74	=74	=74
8r	8r	[2f-	4r
8BB-	8G	.	.
8AA-	8A-	.	8cc
[4.GG	8A	.	[4.dd-
.	8B-	8f-]	.
.	8r	8e-	.
=75	=75	=75	=75
8GG]	8r	[2f-	4dd-]
8BB-	8G	.	.
8AA-	8A-	.	8cc
[4.GG	8A	.	[4.dd-
.	8B-	8f-]	.
.	8r	8e-	.
=76	=76	=76	=76
8GG]	8r	4.f-	4dd-]
8BB-	8G	.	.
8AA-	8A-	.	8dd
4GG	8A	4.e-	8ee-
.	8B-	.	8dd-
8AA-	8c	.	8cc
=77	=77	=77	=77
8D-	8f	8d-	16cc
.	.	.	16b-
8E-	8e-	8c	8a-
8E	8d-	8B-	8g
[4.F	[4.c	[4.A-	8.a-
.	.	.	48b-
.	.	.	48a-
.	.	.	48g
.	.	.	16a-
.	.	.	16b-
=78	=78	=78	=78
8F]	8c]	8A-]	8cc
2r	2r	2r	2r
8r	8r	8r	8f
=79	=79	=79	=79
4r	8r	8r	[3..g-
.	8E-	8c	.
8BB-	8D-	8d-	.
[4.AA-	[4.C	8d	.
.	.	8e-	.
.	.	.	24g-]
.	.	8r	8f
=80	=80	=80	=80
4AA-]	8C]	8r	[3..g-
.	8E-	8c	.
8BB--	8D-	8d-	.
[4.AA-	4.C	8d	.
.	.	8e-	.
.	.	.	24g-]
.	.	8r	8ff
=81	=81	=81	=81
8AA-]	[2.a-	8r	[3..gg-
8A-	.	8cc	.
8B-	.	8dd-	.
8B	.	8dd	.
8c	.	8ee-	.
.	.	.	24gg-]
8d-	.	8dd-	8ff
=82	=82	=82	=82
8e-	8a-]	8b	8dd
4r	4r	8cc	8ee-
.	.	8a-	8cc
8E-	8e-	8cc	8ee-
4r	4r	16.b-	16.dd-
.	.	32a-	32cc
.	.	8g	8b-
=83	=83	=83	=83
8D	4.f	4.a-	2.b-
8F	.	.	.
8B-	.	.	.
8D-	[4.e-	4.g	.
8G	.	.	.
8B-	.	.	.
=84	=84	=84	=84
8C	8e-]	8a-	8ee-
8E	8g	8b-	8dd-
8F	8..a-	8a-	8cc
8D-	.	16.dd-	16.ff
.	32f	32b-	32dd-
8E-	4e-	8a-	8cc
8e-	.	8g	8b-
=85	=85	=85	=85
4.d	4.a-	4.ff [4.b-	8bb-
.	.	.	8ddd
.	.	.	8fff
4.d-	[4.ee-	4.gg 4.b-]	8bb-
.	.	.	8eee-
.	.	.	8ggg
=86	=86	=86	=86
8c	8ee-]	8aa-	8aaa-
2r	2r	8cc	8ccc
.	.	8dd-	8ddd-
.	.	8dd	8ddd
.	.	8ee-	8eee-
8r	8r	8ee	8eee
=87	=87	=87	=87
4d-	4f	8ff	8fff
.	.	8a	8aa
2r	2r	8b-	8bb-
.	.	8..dd-	8..ddd-
.	.	32b-	32bb-
.	.	16.dd-	16.ddd-
.	.	32b-	32bb-
=88	=88	=88	=88
4r	4r	8a-	16.aa-
.	.	.	32ccc
.	.	8r	8.eee-
8e-	8a-	8cc	.
.	.	.	16ccc
8r	8r	8r	8..eee-
8e-	8a-	8cc	.
.	.	.	32ccc
8r	8r	8r	16.eee-
.	.	.	32ccc
=89	=89	=89	=89
8r	8r	8r	8eee-
8e-	8a-	8cc	16.r
.	.	.	32cc
4r	4r	4r	16.ee-
.	.	.	32cc
.	.	.	8ee-
8E-	8A-	8c	16.r
.	.	.	32c
8r	8r	8r	16.e-
.	.	.	32c
=90	=90	=90	=90
2.r	2.r	2.r	8e-
.	.	.	8e
.	.	.	8f
.	.	.	8g-
.	.	.	8g
.	.	.	8a-
=91	=91	=91	=91
8EE-	4.E-	4.c	4.A-
8EE-	.	.	.
8EE-	.	.	.
8EE-	4.D-	4.G	4.B-
8EE-	.	.	.
8EE-	.	.	.
=92	=92	=92	=92
8AA-	4.C	4.A-	4A-
8C	.	.	.
8E-	.	.	2r
8AA-	4.c 4.E-	4.g-	.
8C	.	.	.
8E-	.	.	.
=93	=93	=93	=93
8AA-	[4.d- 4.F	4.f	16f
.	.	.	16ff
8D-	.	.	16ee-
.	.	.	16dd-
8F	.	.	16cc
.	.	.	16b-
8AA-	4.d-] 4.E-	4.g	16e-
.	.	.	16dd-
8BB-	.	.	16cc
.	.	.	16b-
8D-	.	.	16a-
.	.	.	16g
=94	=94	=94	=94
8AA-	4.c 4.E-	4.a-	16.ee-
.	.	.	32cc
8C	.	.	8a-
8E-	.	.	2r
8AA-	4.e- 4.c	4.g-	.
8C	.	.	.
8E-	.	.	.
=95	=95	=95	=95
8AA-	[4.d-	4.f	16f
.	.	.	16ff
8D-	.	.	16ee-
.	.	.	16dd-
8F	.	.	16cc
.	.	.	16b-
8AA-	[4.e- 4.d-]	4.g 4.B-	16b-
.	.	.	16ddd-
8BB-	.	.	16ccc
.	.	.	16bb-
8D-	.	.	16aa-
.	.	.	16gg
=96	=96	=96	=96
8AA-	8e-] 8c	8a- 8c	8aa-
8AA-	8A-	8e- 8c	8a-
8AA-	8A-	8e- 8c	8a-
8AA-	8A-	8e- 8c	8a-
4r	4r	4r	4r
==	==	==	==
*-	*-	*-	*-
!!!RWG1: This file contains only pitch and duration data.
!!!RWG2: Transposing instruments are not transposed.
!!!RWG3: Spines may have incompatible meters.
!!!RWG4: Durations of rests and tied notes may be interpreted.
!!!RWG: Key is interpreted using the Humdrum key tool.
!!!AFT: stage1
!!!END: 1997/04/15
!!!KEY: 4132693571
!!!EMD: Converted from MuseData to Humdrum Dec 16, 2000, by Andreas Kornstaedt using muse2kern.
!!!EMD: Manual editing by Craig Sapp, Nov 2001
